tacvue-mintpage/src/instagram.svg

<?xml version="1.0" encoding="UTF-8"?>
<svg id="Layer_2" data-name="Layer 2" xmlns="http://www.w3.org/2000/svg" viewBox="0 0 33.18 33.18">
  <g id="ELEMENTS">
    <g>
      <path d="M16.67,13.42c-1.75,0-3.17,1.42-3.17,3.17s1.42,3.17,3.17,3.17,3.17-1.42,3.17-3.17-1.42-3.17-3.17-3.17Z"/>
      <path d="M20.6,8.42H12.57c-2.29,0-4.15,1.86-4.15,4.15v8.03c0,2.29,1.86,4.15,4.15,4.15h8.03c2.29,0,4.15-1.86,4.15-4.15V12.57c0-2.29-1.86-4.15-4.15-4.15Zm-3.93,13.11c-2.73,0-4.95-2.22-4.95-4.95s2.22-4.95,4.95-4.95,4.95,2.22,4.95,4.95-2.22,4.95-4.95,4.95Zm5.24-9.06c-.65,0-1.18-.53-1.18-1.18s.53-1.18,1.18-1.18,1.18,.53,1.18,1.18-.53,1.18-1.18,1.18Z"/>
      <path d="M16.59,0C7.43,0,0,7.43,0,16.59s7.43,16.59,16.59,16.59,16.59-7.43,16.59-16.59S25.75,0,16.59,0Zm10.05,20.6c0,3.33-2.71,6.04-6.04,6.04H12.57c-3.33,0-6.04-2.71-6.04-6.04V12.57c0-3.33,2.71-6.04,6.04-6.04h8.03c3.33,0,6.04,2.71,6.04,6.04v8.03Z"/>
    </g>
  </g>
</svg>

<?xml version="1.0" encoding="utf-8"?>
<!-- Generator: Adobe Illustrator 26.5.0, SVG Export Plug-In . SVG Version: 6.00 Build 0)  -->
<svg version="1.1" id="Layer_2_00000020398948780604529370000000962362349060908937_"
	 xmlns="http://www.w3.org/2000/svg" xmlns:xlink="http://www.w3.org/1999/xlink" x="0px" y="0px" viewBox="0 0 33.2 33.2"
	 style="enable-background:new 0 0 33.2 33.2;" xml:space="preserve">
<style type="text/css">
	.st0{fill:#FFFFFF;}
</style>
<g id="ELEMENTS">
	<g>
		<path class="st0" d="M16.7,13.4c-1.8,0-3.2,1.4-3.2,3.2s1.4,3.2,3.2,3.2s3.2-1.4,3.2-3.2S18.4,13.4,16.7,13.4z"/>
		<path class="st0" d="M20.6,8.4h-8c-2.3,0-4.1,1.9-4.1,4.1v8c0,2.3,1.9,4.1,4.1,4.1h8c2.3,0,4.1-1.9,4.1-4.1v-8
			C24.7,10.3,22.9,8.4,20.6,8.4z M16.7,21.5c-2.7,0-4.9-2.2-4.9-5s2.2-4.9,4.9-4.9s4.9,2.2,4.9,4.9S19.4,21.5,16.7,21.5z M21.9,12.5
			c-0.6,0-1.2-0.5-1.2-1.2s0.5-1.2,1.2-1.2s1.2,0.5,1.2,1.2S22.6,12.5,21.9,12.5z"/>
		<path class="st0" d="M16.6,0C7.4,0,0,7.4,0,16.6s7.4,16.6,16.6,16.6s16.6-7.4,16.6-16.6S25.8,0,16.6,0z M26.6,20.6
			c0,3.3-2.7,6-6,6h-8c-3.3,0-6-2.7-6-6v-8c0-3.3,2.7-6,6-6h8c3.3,0,6,2.7,6,6C26.6,12.6,26.6,20.6,26.6,20.6z"/>
	</g>
</g>
</svg>
